korla/status/symbolic/network-cellular-cdma-1x-symbolic.svg

<svg style="clip-rule:evenodd;fill-rule:evenodd;stroke-linejoin:round;stroke-miterlimit:2" version="1.1" viewBox="0 0 16 16" xmlns="http://www.w3.org/2000/svg">
 <path d="m6 3h4c2 0 2 2 2 2v1h-2v-1h-4v6h4v-1h2v1s0 2-2 2h-4s-2 0-2-2v-6c0-2 2-2 2-2z" style="fill:rgb(223,223,223)"/>
</svg>

<svg xmlns="http://www.w3.org/2000/svg" width="16" height="16" version="1.1">
 <path style="fill:#dfdfdf" d="M 3 1 C 1.892 1 1 1.892 1 3 L 1 13 C 1 14.108 1.892 15 3 15 L 13 15 C 14.108 15 15 14.108 15 13 L 15 3 C 15 1.892 14.108 1 13 1 L 3 1 z M 6 3 L 10 3 C 12 3 12 5 12 5 L 12 6 L 10 6 L 10 5 L 6 5 L 6 11 L 10 11 L 10 10 L 12 10 L 12 11 C 12 11 12 13 10 13 L 6 13 C 6 13 4 13 4 11 L 4 5 C 4 3 6 3 6 3 z"/>
</svg>
